assets/img/logo-horizontal-dark.svg

<?xml version="1.0" encoding="utf-8"?>
<!-- Generator: Adobe Illustrator 15.1.0, SVG Export Plug-In . SVG Version: 6.00 Build 0)  -->
<!DOCTYPE svg PUBLIC "-//W3C//DTD SVG 1.1//EN" "http://www.w3.org/Graphics/SVG/1.1/DTD/svg11.dtd">
<svg version="1.1" id="Warstwa_1" xmlns="http://www.w3.org/2000/svg" xmlns:xlink="http://www.w3.org/1999/xlink" x="0px" y="0px"
	 width="978.386px" height="305.016px" viewBox="0 0 978.386 305.016" enable-background="new 0 0 978.386 305.016"
	 xml:space="preserve">
<g id="logo-symbol">
	<path fill="#E9B776" d="M81.791,71.59c2.397,3.139,6.884,3.738,10.021,1.342c17.561-13.417,38.549-20.508,60.696-20.508
		c55.188,0,100.086,44.896,100.086,100.084c0,55.187-44.897,100.083-100.086,100.083c-55.185,0-100.083-44.897-100.083-100.083
		c0-22.148,7.091-43.137,20.509-60.698c2.397-3.135,1.797-7.624-1.341-10.02c-3.137-2.397-7.624-1.797-10.021,1.341
		c-15.338,20.075-23.444,44.064-23.444,69.376c0,63.07,51.311,114.381,114.379,114.381c63.07,0,114.383-51.312,114.383-114.381
		S215.578,38.125,152.507,38.125c-25.311,0-49.301,8.105-69.374,23.442C79.996,63.967,79.394,68.453,81.791,71.59L81.791,71.59z
		 M152.508,0C68.417,0,0,68.414,0,152.508s68.415,152.508,152.508,152.508c84.095,0,152.511-68.414,152.511-152.508
		S236.603,0,152.508,0z M152.508,290.718c-76.208,0-138.21-62-138.21-138.211c0-76.209,62.001-138.211,138.21-138.211
		c76.21,0,138.213,62.001,138.213,138.211C290.719,228.717,228.718,290.718,152.508,290.718z"/>
</g>
<g id="logo-text">
	<path fill="#333333" d="M479.879,186.605c-8.725-5.885-106.557-67.383-106.557-67.383c-2.841-2.235-4.061-5.479,0-10.758
		c13.396-17.659,33.692-28.416,56.832-28.416c23.139,0,45.262,11.771,58.657,31.054c1.827,2.844,1.827,6.495-0.812,8.12
		c-2.639,1.827-6.293,1.014-8.119-1.625c-11.568-16.236-30.242-25.776-49.727-25.776c-18.673,0-35.521,7.104-47.09,21.312
		l107.574,67.588c1.826,0.812,2.639,4.263,0.812,7.104c-12.382,22.123-35.522,35.519-61.297,35.519
		c-24.764,0-47.9-12.583-61.297-34.1c-1.826-2.642,0-5.889,1.826-7.71c2.641-0.812,6.292,0,7.917,1.821
		c10.757,18.678,30.242,29.229,51.554,29.229C449.638,212.586,468.311,202.844,479.879,186.605L479.879,186.605z M667.427,152.508
		c0,40.188-32.68,72.866-73.881,72.866c-39.984,0-72.662-32.683-72.662-72.866c0-39.985,32.678-72.866,72.662-72.866
		C634.748,79.642,667.427,112.522,667.427,152.508L667.427,152.508z M656.669,152.508c0-33.69-28.416-61.903-63.123-61.903
		c-33.488,0-61.902,28.213-61.902,61.903c0,34.708,28.414,61.905,61.902,61.905C628.253,214.413,656.669,187.216,656.669,152.508
		L656.669,152.508z M818.644,81.064c2.641,0,5.074,2.438,5.074,5.479v65.761c0,38.77-27.197,70.633-60.893,70.633
		c-33.285,0-60.688-31.863-60.688-70.633l-0.812-65.152c0-3.648,2.438-5.274,6.092-5.274c2.639,0,5.479,1.626,5.479,5.274v65.152
		c0,32.679,22.732,60.281,49.932,60.281c27.604,0,49.729-27.604,49.729-60.281v-65.76C812.556,83.5,814.99,81.064,818.644,81.064
		L818.644,81.064z M978.386,136.676c0,30.649-28.82,56.222-64.746,56.222l-43.84-1.013v26.182c0,2.643-2.438,5.276-5.074,5.276
		c-3.654,0-5.275-2.638-5.275-5.276l-0.201-32.271V86.747c0-2.642,1.822-5.275,5.479-5.275h48.914
		C949.566,81.47,978.386,106.028,978.386,136.676z M967.224,136.676c0-24.559-23.748-44.854-53.584-44.854H869.8v89.511h43.84
		C943.476,181.329,967.224,161.235,967.224,136.676z"/>
</g>
</svg>

<?xml version="1.0" encoding="UTF-8"?>
<svg width="974px" height="306px" viewBox="0 0 974 306" version="1.1" xmlns="http://www.w3.org/2000/svg" xmlns:xlink="http://www.w3.org/1999/xlink">
    <!-- Generator: Sketch 60 (88103) - https://sketch.com -->
    <title>logo-horizontal-dark</title>
    <desc>Created with Sketch.</desc>
    <g id="Page-1" stroke="none" stroke-width="1" fill="none" fill-rule="evenodd">
        <g id="logo-horizontal-dark">
            <g id="logo-symbol" fill="#E9B776" fill-rule="nonzero">
                <path d="M81.791,71.59 C84.188,74.729 88.675,75.328 91.812,72.932 C109.373,59.515 130.361,52.424 152.508,52.424 C207.696,52.424 252.594,97.32 252.594,152.508 C252.594,207.695 207.697,252.591 152.508,252.591 C97.323,252.591 52.425,207.694 52.425,152.508 C52.425,130.36 59.516,109.371 72.934,91.81 C75.331,88.675 74.731,84.186 71.593,81.79 C68.456,79.393 63.969,79.993 61.572,83.131 C46.234,103.206 38.128,127.195 38.128,152.507 C38.128,215.577 89.439,266.888 152.507,266.888 C215.577,266.888 266.89,215.576 266.89,152.507 C266.89,89.438 215.578,38.125 152.507,38.125 C127.196,38.125 103.206,46.23 83.133,61.567 C79.996,63.967 79.394,68.453 81.791,71.59 L81.791,71.59 Z M152.508,0 C68.417,0 0,68.414 0,152.508 C0,236.602 68.415,305.016 152.508,305.016 C236.603,305.016 305.019,236.602 305.019,152.508 C305.019,68.414 236.603,0 152.508,0 Z M152.508,290.718 C76.3,290.718 14.298,228.718 14.298,152.507 C14.298,76.298 76.299,14.296 152.508,14.296 C228.718,14.296 290.721,76.297 290.721,152.507 C290.721,228.717 228.718,290.718 152.508,290.718 Z" id="Shape"></path>
            </g>
            <text id="s・i・p" font-family="STHeitiSC-Light, Heiti SC" font-size="190" font-weight="300" fill="#000000">
                <tspan x="363" y="219">s</tspan>
                <tspan x="436.72" y="219" font-family="HiraginoSans-W3, Hiragino Sans">・</tspan>
                <tspan x="626.72" y="219">i</tspan>
                <tspan x="664.72" y="219" font-family="HiraginoSans-W3, Hiragino Sans">・</tspan>
                <tspan x="854.72" y="219">p</tspan>
            </text>
        </g>
    </g>
</svg>
